Numix/16x16/status/user-idle-panel.svg

<?xml version="1.0" encoding="UTF-8" standalone="no"?>
<svg
   xmlns:dc="http://purl.org/dc/elements/1.1/"
   xmlns:cc="http://creativecommons.org/ns#"
   xmlns:rdf="http://www.w3.org/1999/02/22-rdf-syntax-ns#"
   xmlns:svg="http://www.w3.org/2000/svg"
   xmlns="http://www.w3.org/2000/svg"
   xmlns:sodipodi="http://sodipodi.sourceforge.net/DTD/sodipodi-0.dtd"
   xmlns:inkscape="http://www.inkscape.org/namespaces/inkscape"
   width="16"
   height="16"
   viewBox="0 0 16 16"
   id="svg3027"
   version="1.1"
   inkscape:version="0.48.5 r10040"
   sodipodi:docname="user-idle-panel.svg">
  <metadata
     id="metadata3043">
    <rdf:RDF>
      <cc:Work
         rdf:about="">
        <dc:format>image/svg+xml</dc:format>
        <dc:type
           rdf:resource="http://purl.org/dc/dcmitype/StillImage" />
      </cc:Work>
    </rdf:RDF>
  </metadata>
  <defs
     id="defs3041" />
  <sodipodi:namedview
     pagecolor="#ffffff"
     bordercolor="#666666"
     borderopacity="1"
     objecttolerance="10"
     gridtolerance="10"
     guidetolerance="10"
     inkscape:pageopacity="0"
     inkscape:pageshadow="2"
     inkscape:window-width="1280"
     inkscape:window-height="998"
     id="namedview3039"
     showgrid="false"
     inkscape:zoom="29.5"
     inkscape:cx="8.0273681"
     inkscape:cy="7.3839142"
     inkscape:window-x="0"
     inkscape:window-y="0"
     inkscape:window-maximized="1"
     inkscape:current-layer="svg3027" />
  <path
     inkscape:connector-curvature="0"
     id="path3035"
     d="m 7.601562,2.910156 c -3.3125,0 -6,2.441406 -6,5.453125 0,3.011719 2.6875,5.453125 6,5.453125 1.570313,0 3.003907,-0.550781 4.074219,-1.453125 l 4.324219,0 -2.675781,-2.433593 c 0.167969,-0.496094 0.277343,-1.015626 0.277343,-1.566407 0,-3.011719 -2.691406,-5.453125 -6,-5.453125 z m 0,2.179688 c 1.984376,0 3.597657,1.46875 3.597657,3.273437 0,1.808594 -1.613281,3.273438 -3.597657,3.273438 C 5.613281,11.636719 4,10.171875 4,8.363281 4,6.558594 5.613281,5.089844 7.601562,5.089844 z"
     style="fill:#ececec;fill-rule:evenodd;fill-opacity:1" />
  <path
     style="fill:none;stroke:#ececec;stroke-linejoin:round;stroke-linecap:round;stroke-opacity:1"
     d="M 11.259766 11.499512 L 9.501953 11.499512 L 9.501953 8.996582 "
     transform="scale(.8 .72727)"
     id="path3037" />
</svg>

<svg width="16" xmlns="http://www.w3.org/2000/svg" height="16" viewBox="0 0 16 16" xmlns:xlink="http://www.w3.org/1999/xlink">
<path style="stroke-opacity:.302;fill:none;stroke:#000;stroke-linejoin:round;stroke-linecap:round" d="M 11.259766 12.498535 L 9.501953 12.498535 L 9.501953 10.000977 " transform="scale(.8 .72727)"/>
<g style="fill-rule:evenodd">
<path style="fill:#000;fill-opacity:.302" d="M 7.601562 3.636719 C 4.289062 3.636719 1.601562 6.078125 1.601562 9.089844 C 1.601562 12.101562 4.289062 14.546875 7.601562 14.546875 C 9.171875 14.546875 10.605469 13.992188 11.675781 13.089844 L 16 13.089844 L 13.324219 10.660156 C 13.492188 10.160156 13.601562 9.640625 13.601562 9.089844 C 13.601562 6.078125 10.910156 3.636719 7.601562 3.636719 Z M 7.601562 5.816406 C 9.585938 5.816406 11.199219 7.285156 11.199219 9.089844 C 11.199219 10.898438 9.585938 12.363281 7.601562 12.363281 C 5.613281 12.363281 4 10.898438 4 9.089844 C 4 7.285156 5.613281 5.816406 7.601562 5.816406 Z "/>
<path style="fill:#dcdcdc" d="M 7.601562 2.910156 C 4.289062 2.910156 1.601562 5.351562 1.601562 8.363281 C 1.601562 11.375 4.289062 13.816406 7.601562 13.816406 C 9.171875 13.816406 10.605469 13.265625 11.675781 12.363281 L 16 12.363281 L 13.324219 9.929688 C 13.492188 9.433594 13.601562 8.914062 13.601562 8.363281 C 13.601562 5.351562 10.910156 2.910156 7.601562 2.910156 Z M 7.601562 5.089844 C 9.585938 5.089844 11.199219 6.558594 11.199219 8.363281 C 11.199219 10.171875 9.585938 11.636719 7.601562 11.636719 C 5.613281 11.636719 4 10.171875 4 8.363281 C 4 6.558594 5.613281 5.089844 7.601562 5.089844 Z "/>
</g>
<path style="fill:none;stroke:#dcdcdc;stroke-linejoin:round;stroke-linecap:round" d="M 11.259766 11.499512 L 9.501953 11.499512 L 9.501953 8.996582 " transform="scale(.8 .72727)"/>
</svg>
